app/img/partner-6.svg

<svg width="186" height="59" viewBox="0 0 186 59" fill="none" xmlns="http://www.w3.org/2000/svg">
<g clip-path="url(#clip0)">
<path d="M97.3489 10.1674H99.4387L94.7367 17.3429V17.5579L99.4387 26.4738H97.3489L93.0856 18.3206H91.7762V26.4738H89.8605V10.1674H91.7762V16.5562H93.0856C93.1557 16.5562 96.9272 10.8831 97.3489 10.1674ZM107.147 20.0619C107.076 20.1339 107.076 20.1339 106.936 20.1339H106.865C106.795 20.1339 106.795 20.1339 106.795 20.0619L106.725 19.9904C106.725 19.919 106.655 19.919 106.655 19.8475L104.141 10.1674H101.877L104.837 21.3337C104.837 21.4772 105.038 21.6363 105.249 21.7793C105.459 21.9228 105.67 21.9942 105.881 21.9942H106.584L105.389 26.5021L107.45 26.4738L111.803 10.1674H109.713L107.147 20.0619ZM156.953 20.0448C156.883 20.1167 156.883 20.1167 156.742 20.1167H156.672C156.602 20.1167 156.602 20.1167 156.602 20.0448L156.531 19.9734C156.531 19.9021 156.461 19.9021 156.461 19.8307L153.947 10.1674H151.683L154.644 21.3144C154.644 21.4576 154.844 21.6165 155.055 21.7592C155.266 21.9024 155.477 21.9738 155.688 21.9738H156.391L155.195 26.4738L157.256 26.4456L161.61 10.1674H159.52L156.953 20.0448ZM114.248 25.0558V26.651H114.529C115.232 26.651 115.794 26.645 116.357 26.5021C116.919 26.3591 117.341 26.1442 117.763 25.9298C118.247 25.5876 118.769 24.8786 119.117 23.8151L119.64 11.9398H122.949V26.5021H124.864V10.1674C124.864 10.1674 120.294 10.0959 118.677 10.1674C118.466 10.1674 117.935 10.3412 117.724 10.6991C117.443 11.3434 117.376 12.826 117.412 12.8351L117.028 23.6379C117.028 23.7808 116.849 24.0689 116.779 24.2124C116.708 24.3553 116.568 24.4268 116.357 24.5703C116.146 24.6418 115.935 24.7847 115.654 24.7847C115.373 24.8562 114.951 25.0558 114.529 25.0558H114.248ZM137.403 16.7706C137.403 16.1984 137.167 15.769 136.746 15.4111C136.324 15.0533 135.832 14.8389 135.199 14.8389C134.918 14.8389 132.778 15.3397 132.004 15.5541V10.1674H129.915V23.9975C129.915 24.3553 129.996 24.7132 130.137 25.0711C130.277 25.4284 130.488 25.7148 130.77 25.9298C131.051 26.1442 131.332 26.3591 131.684 26.5021C132.035 26.645 132.457 26.651 132.879 26.651H134.285C134.707 26.651 135.129 26.645 135.48 26.5021C135.832 26.3591 136.183 26.1442 136.394 25.9298C136.676 25.7148 136.886 25.357 137.027 25.0711C137.167 24.7132 137.395 24.3469 137.395 23.9975L137.403 16.7706ZM135.34 23.9975C135.34 24.2839 135.269 24.4983 135.058 24.6418C134.918 24.7847 134.636 24.8786 134.356 24.8786H132.949C132.668 24.8786 132.387 24.7847 132.246 24.6418C132.106 24.4983 132.004 24.2839 132.004 23.9975V17.4149C132.778 17.2 134.847 16.7706 134.988 16.7706C135.058 16.7706 135.129 16.8421 135.199 16.9856C135.269 17.1285 135.269 17.3429 135.269 17.6293L135.34 23.9975ZM149.071 11.9398V10.1674H140.894V11.9398H144.021V26.4738H146.11V11.9398H149.071ZM165.441 26.4738H167.488V19.4648H169.96C170.383 19.4648 170.807 19.3934 171.23 19.2505C171.654 19.1071 172.007 18.8928 172.289 18.6066C172.571 18.3209 172.784 18.0346 172.995 17.6769C173.136 17.3192 173.278 16.962 173.278 16.5329V12.957C173.278 12.5279 173.207 12.1702 172.995 11.8125C172.854 11.4547 172.571 11.169 172.289 10.9542C172.007 10.7399 171.654 10.5251 171.23 10.3822C170.807 10.2388 170.383 10.1674 169.96 10.1674H165.441V26.4738ZM170.001 11.9764C170.352 11.9764 170.633 12.0478 170.844 12.2628C171.055 12.4057 171.196 12.6921 171.196 12.9786V16.5562C171.196 16.9136 171.055 17.1285 170.844 17.3429C170.633 17.5579 170.352 17.6293 170.001 17.6293H167.54V11.9049H170.001V11.9764ZM185.468 26.4738L182.521 10.7034C182.521 10.5608 182.381 10.347 182.171 10.2039C181.96 10.0614 181.749 9.99011 181.539 9.99011H179.574C179.364 9.99011 179.154 10.0614 178.943 10.2039C178.733 10.347 178.662 10.4895 178.592 10.7034L175.716 26.4738H177.75L178.522 22.549H182.661L183.433 26.4738H185.468ZM182.375 20.7062H178.789L180.265 12.1199C180.265 12.0478 180.265 12.0478 180.336 11.9764C180.336 11.9049 180.406 11.9049 180.476 11.9049H180.546C180.617 11.9049 180.687 11.9764 180.757 12.0478C180.757 12.1199 180.828 12.1199 180.828 12.1913L182.375 20.7062ZM102.573 48.452H104.62V41.4431H107.091C107.515 41.4431 107.939 41.3716 108.362 41.2288C108.786 41.0854 109.139 40.8711 109.422 40.5848C109.704 40.2991 109.916 40.0128 110.127 39.6551C110.269 39.2974 110.41 38.9403 110.41 38.5111V34.9352C110.41 34.5061 110.339 34.1484 110.127 33.7907C109.986 33.433 109.704 33.1473 109.422 32.9324C109.139 32.7181 108.786 32.5033 108.362 32.3604C107.939 32.2176 107.515 32.1456 107.091 32.1456H102.573V48.452ZM107.076 33.8718C107.428 33.8718 107.709 33.9439 107.92 34.1582C108.131 34.3012 108.272 34.5876 108.272 34.874V38.4517C108.272 38.8096 108.131 39.024 107.92 39.2384C107.709 39.4533 107.428 39.5248 107.076 39.5248H104.616V33.8004H107.076V33.8718ZM120.685 33.9969V32.1456H114.241V48.452H120.685V46.6007H116.273V40.4058H120.124V38.5545H116.273V33.9969H120.685ZM130.828 31.9683V38.4188H127.086V31.9683H125.038V48.3804H127.086V40.282H130.828V48.452H132.875V31.9683H130.828ZM146.981 48.3804V31.9683H144.929V32.6137L140.327 43.3638V31.9683H138.274V48.3804H140.327V47.7357L144.929 36.985V48.452H146.981V48.3804ZM159.52 31.9683H155.062C154.644 31.9683 154.225 32.0398 153.808 32.1832C153.39 32.326 153.111 32.5409 152.763 32.7552C152.484 32.97 152.275 33.3272 152.066 33.6134C151.927 33.9711 151.788 34.3288 151.788 34.758L151.718 38.3339C151.718 38.691 151.788 39.0487 151.927 39.4064C152.066 39.7641 152.275 40.0499 152.554 40.2647C152.832 40.551 153.111 40.7653 153.459 40.9081C153.808 41.0515 154.156 41.1944 154.574 41.1944L151.509 48.2748H153.529L156.594 41.2658H157.36L157.43 48.2748H159.38L159.52 31.9683ZM157.627 33.8718L157.556 39.5248H155.096C154.744 39.5248 154.463 39.4533 154.252 39.2384C154.041 39.024 153.9 38.7376 153.9 38.4517L153.971 34.874C153.971 34.5876 154.111 34.3012 154.322 34.1582C154.533 34.0153 154.814 33.8718 155.166 33.8718H157.627ZM98.711 42.063C98.711 41.4195 98.3597 40.9193 97.7977 40.5619C97.5165 40.4192 97.3058 40.2764 97.0251 40.0617C97.0952 39.9904 97.0952 39.919 97.1658 39.919C98.2191 39.4902 98.5703 38.6326 98.5703 37.6323C98.5703 36.846 98.6404 36.0598 98.5703 35.2736C98.5003 34.7734 98.3597 34.2019 98.149 33.7731C97.4465 32.4153 96.1119 32.1293 94.7073 31.9865C93.9347 31.9152 93.1621 32.0579 92.4596 32.344C91.5463 32.7014 90.7738 33.2729 90.3524 34.2019C90.0712 34.8454 90.0712 35.5597 90.0712 36.2031H92.0383C92.0383 35.9884 92.0383 35.7743 92.0383 35.5597C92.0383 34.8454 92.3189 34.2019 93.0916 34.0591C93.7241 33.9158 94.4261 33.9158 95.0586 33.9158C95.9713 33.9878 96.5332 34.5593 96.5332 35.4169C96.5332 36.1312 96.5332 36.846 96.5332 37.6323C96.5332 38.0611 96.3932 38.4185 96.0419 38.704C95.55 39.1328 94.918 39.2041 94.3561 39.2041C93.9347 39.2041 93.5129 39.2041 93.0916 39.2041C93.0215 39.2041 92.8109 39.3475 92.8109 39.4188C92.8109 39.919 92.8109 40.4192 92.8109 40.9193C93.0215 40.9193 93.1621 40.9193 93.3728 40.9193C94.1454 40.9907 94.918 40.9907 95.6206 41.0621C96.2525 41.134 96.6739 41.6342 96.7439 42.2057C96.8145 43.1347 96.7439 44.4177 96.7439 45.3467C96.7439 45.8468 96.4632 46.1329 96.0419 46.3476C95.1287 46.8477 94.1454 46.7764 93.2322 46.6331C92.1083 46.4189 91.757 45.9901 91.8276 44.7037C91.8276 44.4891 91.8276 44.2036 91.8276 43.9889H89.8605C89.8605 44.4891 89.8605 44.9179 89.8605 45.418C89.8605 46.2756 90.2818 47.0619 90.9844 47.562C91.687 48.1341 92.5296 48.3482 93.4428 48.4196C94.7073 48.491 95.9013 48.491 97.0251 47.9194C98.0084 47.4193 98.6404 46.7044 98.711 45.6327C98.781 44.6324 98.711 43.2061 98.711 42.063ZM62.7837 14.5524C62.3619 14.1946 62.0103 14.1231 61.7288 14.1231C61.4478 14.1231 61.237 14.1946 61.1663 14.266C61.0256 14.338 60.8147 14.481 60.6039 14.6954C59.5496 15.6975 57.5806 17.7722 55.3313 20.2054C51.3939 24.3553 46.5425 29.5075 43.1682 32.7988C41.2699 34.5876 39.4417 35.5177 37.7543 35.5177C36.4185 35.5177 33.8175 34.1582 32.6926 33.2281C31.4269 32.155 27.9819 28.8632 27.9118 28.8632H27.8412L27.9118 28.7917C27.9118 28.7917 30.021 27.2893 33.4659 24.6418C35.1534 23.3537 36.4185 22.8529 37.7543 22.8529C39.2309 22.8529 40.5667 23.2823 41.7617 24.141C41.8324 24.2124 41.9025 24.2124 41.9726 24.2839C42.0433 24.2839 42.1134 24.3553 42.184 24.4268C42.6758 23.926 44.0117 22.5665 44.3633 22.2086H44.2932C44.0117 21.9228 44.0117 21.9228 43.9416 21.9228C43.8709 21.9228 43.8008 21.8507 43.3791 21.5649C41.7618 20.4198 39.5825 19.7046 37.6842 19.7046C35.9968 19.7046 34.3094 20.3483 32.2703 21.7793C30.3019 23.1388 24.8179 27.933 24.7478 28.0045C24.4663 28.2909 24.3261 28.6488 24.2555 29.0781C24.2555 29.364 24.2555 29.6504 24.6071 30.0798C24.6777 30.1512 31.2861 36.305 32.0595 36.7343C32.2002 36.8058 32.4111 36.9487 32.5518 37.0922C33.7469 37.8789 35.2235 38.8096 37.5435 38.8096C40.2857 38.8096 43.2383 37.0202 44.8556 35.4463C46.6833 33.586 52.9406 27.0029 56.5263 23.2108L62.8538 16.6277C62.9945 16.5562 63.838 15.4826 62.7837 14.5524ZM69.6736 22.7094C69.8844 22.3521 69.9545 22.1372 69.8844 21.7078C69.7437 20.9926 69.1111 20.4198 68.4079 20.4198C68.197 20.4198 67.7753 20.5633 67.2829 20.9206C65.3846 22.9244 63.6978 24.7132 62.2913 26.2871C52.8705 36.2335 52.308 36.8058 49.3549 39.4533C44.7149 43.5318 41.9025 45.4636 38.0358 45.4636C34.2393 45.4636 31.1459 43.031 28.052 40.7413C27.8412 40.5984 27.5602 40.3835 27.3493 40.2405C21.7246 35.9471 15.7486 29.0781 15.7486 29.0067L15.6783 28.8632L15.7486 28.7917C15.7486 28.7917 17.2251 26.8599 19.4749 24.6418C22.2871 21.7793 25.3103 19.0603 27.7004 17.1285C31.0753 14.481 34.661 13.05 38.1059 12.9786H38.176C42.184 12.9786 46.0507 14.5524 48.8631 17.4149L50.9722 15.1967C47.7381 11.6905 43.4492 9.90168 38.0358 9.90168C34.0284 9.90168 30.2318 11.4041 25.732 14.8389C22.9196 16.9856 20.5295 19.1317 18.2796 21.3499C16.3111 23.3537 14.694 25.1426 13.4285 26.7165C13.2879 26.9314 13.1472 27.0743 13.0067 27.2893C12.5848 27.7901 12.2333 28.2194 12.0224 28.6488C11.8818 29.0067 11.9521 29.8648 12.3036 30.1512C12.5848 30.3662 13.2176 31.0099 14.1316 31.9401C17.436 35.1599 24.2555 41.8859 26.576 43.5318C32.0595 47.5388 34.1686 48.469 38.0358 48.6119C38.176 48.6119 38.2467 48.6119 38.3874 48.6119C43.5198 48.6119 47.3865 45.2492 50.4798 42.6017L51.0423 42.1723C55.8937 37.8789 65.9471 26.7165 66.0879 26.5735L66.3694 26.2871V26.3591C67.0721 25.6434 69.1111 23.4967 69.6736 22.7094ZM76.1418 28.5053C76.1418 27.6466 75.4385 26.9314 74.6652 26.9314C74.3136 26.9314 73.8218 27.0029 73.4701 27.4322C72.6262 28.2909 71.2202 29.8648 69.3921 31.8686C64.6113 37.1637 57.3698 45.1777 53.6438 48.2546C48.5115 52.476 42.9574 54.8371 37.9652 54.8371C37.825 54.8371 37.7543 54.8371 37.6141 54.8371C31.6377 54.6942 26.4353 52.4046 22.2871 48.0396C15.9595 41.3851 3.65593 28.8632 3.5856 28.7203L3.51534 28.6488L3.5856 28.5773C3.72625 28.4338 18.35 13.1929 22.217 9.75819C26.7869 5.67969 32.4817 3.31852 37.8951 3.31852H37.9652C45.5583 3.3901 49.9174 5.25035 55.1199 10.8318L57.2997 8.61364C52.308 2.81766 46.3317 0.241699 37.9652 0.241699C30.5128 0.241699 26.7162 2.74608 23.3419 4.96449C20.8812 6.53838 15.9595 11.1897 15.8892 11.2612C12.3739 14.7674 4.00743 23.7116 1.26549 26.645C0.703067 27.2178 0.492152 27.4322 0.492152 27.5037C0.140591 27.8616 0 28.2194 0 28.6488C0 29.0067 0.140591 29.2925 0.421829 29.6504C0.421829 29.6504 0.703067 29.9368 1.40613 30.7235C11.3896 41.3136 16.9438 47.181 18.0687 48.2546L18.2093 48.3975C22.9903 52.9768 28.4743 58.2004 37.6842 58.2004C47.3865 58.2004 54.8389 51.9038 58.4947 48.1831C64.3303 42.1008 75.7901 29.4355 75.8603 29.2925C76.001 29.1496 76.1418 28.7917 76.1418 28.5053Z" fill="#00F0FF"/>
</g>
<defs>
<clipPath id="clip0">
<rect width="185.468" height="57.9587" fill="white" transform="translate(0 0.241699)"/>
</clipPath>
</defs>
</svg>

<svg width="186" height="59" fill="none" xmlns="http://www.w3.org/2000/svg"><g clip-path="url(#clip0)"><path d="M97.349 10.167h2.09l-4.702 7.176v.215l4.702 8.916h-2.09l-4.263-8.153h-1.31v8.153h-1.915V10.167h1.915v6.39h1.31c.07 0 3.841-5.674 4.263-6.39zm9.798 9.895c-.071.072-.071.072-.211.072h-.071c-.07 0-.07 0-.07-.072l-.07-.072c0-.071-.07-.071-.07-.142l-2.514-9.68h-2.264l2.96 11.166c0 .143.201.302.412.445.21.144.421.215.632.215h.703l-1.195 4.508 2.061-.028 4.353-16.307h-2.09l-2.566 9.895zm49.806-.017c-.07.072-.07.072-.211.072h-.07c-.07 0-.07 0-.07-.072l-.071-.072c0-.07-.07-.07-.07-.142l-2.514-9.664h-2.264l2.961 11.147c0 .144.2.302.411.445.211.143.422.215.633.215h.703l-1.196 4.5 2.061-.028 4.354-16.279h-2.09l-2.567 9.878zm-42.705 5.01v1.596h.281c.703 0 1.265-.006 1.828-.149.562-.143.984-.358 1.406-.572.484-.342 1.006-1.051 1.354-2.115l.523-11.875h3.309v14.562h1.915V10.167s-4.57-.071-6.187 0c-.211 0-.742.174-.953.532-.281.644-.348 2.127-.312 2.136l-.384 10.803c0 .143-.179.43-.249.574-.071.143-.211.215-.422.358-.211.072-.422.215-.703.215-.281.071-.703.27-1.125.27h-.281zm23.155-8.284c0-.573-.236-1.002-.657-1.36a2.293 2.293 0 00-1.547-.572c-.281 0-2.421.5-3.195.715v-5.387h-2.089v13.83c0 .358.081.716.222 1.074.14.357.351.644.633.859.281.214.562.43.914.572.351.143.773.149 1.195.149h1.406c.422 0 .844-.006 1.195-.149.352-.143.703-.358.914-.572.282-.215.492-.573.633-.859.14-.358.368-.724.368-1.074l.008-7.226zm-2.063 7.226c0 .287-.071.501-.282.645-.14.143-.422.237-.702.237h-1.407c-.281 0-.562-.094-.703-.237a.898.898 0 01-.242-.645v-6.582c.774-.215 2.843-.644 2.984-.644.07 0 .141.071.211.215.07.142.07.357.07.643l.071 6.368zm13.731-12.057v-1.773h-8.177v1.773h3.127v14.534h2.089V11.94h2.961zm16.37 14.534h2.047v-7.01h2.472a3.95 3.95 0 001.27-.213 2.65 2.65 0 001.059-.644c.282-.286.495-.572.706-.93.141-.358.283-.715.283-1.144v-3.576c0-.43-.071-.787-.283-1.145-.141-.357-.424-.643-.706-.858a3.718 3.718 0 00-1.059-.572 3.937 3.937 0 00-1.27-.215h-4.519v16.307zm4.56-14.498c.351 0 .632.072.843.287.211.143.352.43.352.716v3.577c0 .358-.141.572-.352.787-.211.215-.492.286-.843.286h-2.461v-5.724h2.461v.071zm15.467 14.498l-2.947-15.77c0-.143-.14-.357-.35-.5a1.124 1.124 0 00-.632-.214h-1.965c-.21 0-.42.071-.631.214-.21.143-.281.285-.351.5l-2.876 15.77h2.034l.772-3.925h4.139l.772 3.925h2.035zm-3.093-5.768h-3.586l1.476-8.586c0-.072 0-.072.071-.144 0-.071.07-.071.14-.071h.07c.071 0 .141.071.211.143 0 .072.071.072.071.143l1.547 8.515zm-79.802 27.746h2.047v-7.009h2.471c.424 0 .848-.071 1.271-.214a2.66 2.66 0 001.06-.644c.282-.286.494-.572.705-.93.142-.358.283-.715.283-1.144v-3.576c0-.429-.071-.787-.283-1.144-.141-.358-.423-.644-.705-.859a3.739 3.739 0 00-1.06-.572 3.955 3.955 0 00-1.271-.214h-4.518v16.306zm4.503-14.58c.352 0 .633.072.844.286.211.143.352.43.352.716v3.578c0 .358-.141.572-.352.786-.211.215-.492.287-.844.287h-2.46V33.8h2.46v.072zm13.609.125v-1.851h-6.444v16.306h6.444v-1.851h-4.412v-6.195h3.851v-1.852h-3.851v-4.557h4.412zm10.143-2.029v6.45h-3.742v-6.45h-2.048V48.38h2.048v-8.098h3.742v8.17h2.047V31.968h-2.047zm16.153 16.412V31.968h-2.052v.646l-4.602 10.75V31.968h-2.053V48.38h2.053v-.644l4.602-10.751v11.467h2.052v-.072zm12.539-16.412h-4.458a3.85 3.85 0 00-1.254.215c-.418.143-.697.358-1.045.572-.279.215-.488.572-.697.858-.139.358-.278.716-.278 1.145l-.07 3.576c0 .357.07.715.209 1.072.139.358.348.644.627.859.278.286.557.5.905.643.349.143.697.286 1.115.286l-3.065 7.08h2.02l3.065-7.008h.766l.07 7.009h1.95l.14-16.307zm-1.893 1.904l-.071 5.653h-2.46c-.352 0-.633-.072-.844-.287-.211-.214-.352-.5-.352-.786l.071-3.578c0-.286.14-.573.351-.716.211-.143.492-.286.844-.286h2.461zm-58.916 8.191c0-.644-.351-1.144-.913-1.501a4.658 4.658 0 01-.773-.5c.07-.072.07-.143.14-.143 1.054-.429 1.405-1.286 1.405-2.287 0-.786.07-1.572 0-2.358-.07-.5-.21-1.072-.421-1.5-.703-1.359-2.037-1.645-3.442-1.788a4.812 4.812 0 00-2.247.358c-.914.357-1.686.929-2.108 1.858-.28.643-.28 1.358-.28 2.001h1.966v-.643c0-.715.28-1.358 1.054-1.5.632-.144 1.334-.144 1.967-.144.912.072 1.474.643 1.474 1.5v2.216c0 .43-.14.787-.491 1.072-.492.429-1.124.5-1.686.5h-1.264c-.07 0-.281.143-.281.215v1.5h.562c.772.072 1.545.072 2.248.143.632.072 1.053.572 1.123 1.144.07.929 0 2.212 0 3.14 0 .5-.28.787-.702 1.002-.913.5-1.897.428-2.81.285-1.124-.214-1.475-.643-1.404-1.93v-.714H89.86v1.429c0 .858.422 1.644 1.124 2.144.703.572 1.546.786 2.459.858 1.264.071 2.458.071 3.582-.5.983-.5 1.615-1.216 1.686-2.287.07-1 0-2.427 0-3.57zm-35.927-27.51c-.422-.358-.774-.43-1.055-.43-.281 0-.492.072-.563.143a2.33 2.33 0 00-.562.43c-1.054 1.002-3.023 3.076-5.273 5.51-3.937 4.15-8.789 9.302-12.163 12.593-1.898 1.789-3.726 2.719-5.414 2.719-1.335 0-3.936-1.36-5.061-2.29-1.266-1.073-4.711-4.365-4.781-4.365h-.07l.07-.071s2.109-1.503 5.554-4.15c1.687-1.288 2.953-1.79 4.288-1.79 1.477 0 2.813.43 4.008 1.289.07.071.14.071.21.143.071 0 .141.071.212.143l2.18-2.218h-.07c-.282-.286-.282-.286-.352-.286-.071 0-.141-.072-.563-.358-1.617-1.145-3.796-1.86-5.695-1.86-1.687 0-3.375.643-5.414 2.074-1.968 1.36-7.452 6.154-7.522 6.226-.282.286-.422.644-.492 1.073 0 .286 0 .572.351 1.002.07.071 6.68 6.225 7.453 6.654.14.072.351.215.492.358 1.195.787 2.672 1.718 4.992 1.718 2.742 0 5.694-1.79 7.312-3.364 1.827-1.86 8.085-8.443 11.67-12.235l6.328-6.583c.14-.072.984-1.145-.07-2.076zm6.89 8.156c.21-.357.28-.572.21-1.001-.14-.715-.773-1.288-1.476-1.288-.211 0-.633.143-1.125.5-1.898 2.004-3.585 3.793-4.992 5.367-9.42 9.947-9.983 10.519-12.936 13.166-4.64 4.079-7.452 6.01-11.32 6.01-3.796 0-6.89-2.432-9.983-4.722-.21-.143-.492-.358-.703-.5-5.624-4.294-11.6-11.163-11.6-11.234l-.07-.144.07-.071s1.476-1.932 3.726-4.15c2.812-2.863 5.835-5.582 8.225-7.514 3.375-2.647 6.961-4.078 10.406-4.15h.07c4.008 0 7.875 1.574 10.687 4.437l2.11-2.218c-3.235-3.506-7.524-5.295-12.937-5.295-4.008 0-7.804 1.502-12.304 4.937-2.812 2.147-5.203 4.293-7.452 6.51-1.969 2.005-3.586 3.794-4.852 5.367-.14.215-.28.358-.421.573-.422.501-.774.93-.985 1.36-.14.358-.07 1.216.282 1.502.28.215.914.859 1.828 1.79 3.304 3.219 10.124 9.945 12.444 11.59 5.483 4.008 7.593 4.938 11.46 5.08h.351c5.133 0 9-3.362 12.093-6.01l.562-.429c4.852-4.293 14.905-15.455 15.046-15.598l.281-.287v.072c.703-.716 2.742-2.862 3.305-3.65zm6.468 5.796c0-.858-.703-1.574-1.477-1.574-.351 0-.843.072-1.195.501-.844.859-2.25 2.433-4.078 4.437-4.78 5.295-12.022 13.309-15.748 16.386-5.133 4.221-10.687 6.582-15.679 6.582h-.35c-5.977-.143-11.18-2.432-15.328-6.797C15.96 41.385 3.656 28.863 3.586 28.72l-.07-.071.07-.072c.14-.143 14.764-15.384 18.631-18.819 4.57-4.078 10.265-6.44 15.678-6.44h.07c7.593.072 11.952 1.932 17.155 7.514l2.18-2.218C52.308 2.818 46.332.242 37.965.242c-7.452 0-11.249 2.504-14.623 4.722-2.46 1.574-7.382 6.226-7.453 6.297-3.515 3.506-11.882 12.45-14.624 15.384-.562.573-.773.787-.773.859-.351.358-.492.715-.492 1.145 0 .358.14.643.422 1.001 0 0 .281.287.984 1.074 9.984 10.59 15.538 16.457 16.663 17.53l.14.144C22.99 52.977 28.474 58.2 37.684 58.2c9.703 0 17.155-6.296 20.81-10.017 5.836-6.082 17.296-18.747 17.366-18.89.141-.143.282-.501.282-.788z" fill="#00F0FF"/></g><defs><clipPath id="clip0"><path fill="#fff" transform="translate(0 .242)" d="M0 0h185.468v57.959H0z"/></clipPath></defs></svg>
